svgs/sharp-solid/arrow-up-9-1.svg

<svg xmlns="http://www.w3.org/2000/svg" viewBox="0 0 576 512"><!--! Font Awesome Pro 6.6.0 by @fontawesome - https://fontawesome.com License - https://fontawesome.com/license (Commercial License) Copyright 2024 Fonticons, Inc. --><path d="M432 152a32 32 0 1 0 0-64 32 32 0 1 0 0 64zm-88-32c0-48.6 39.4-88 88-88s88 39.4 88 88c0 22.6-6.2 44.8-18 64.1L458.3 256l-74.9 0 5.2-8.6 25.1-41.3C373.9 197.7 344 162.3 344 120zM160 32.6l23.6 25.7 88 96L293.2 178 246 221.2l-21.6-23.6L192 162.3 192 448l0 32-64 0 0-32 0-285.7L95.6 197.6 74 221.2 26.8 178l21.6-23.6 88-96L160 32.6zM352 288l32 0 48 0 32 0 0 32 0 96 16 0 32 0 0 64-32 0-48 0-48 0-32 0 0-64 32 0 16 0 0-64-16 0-32 0 0-64z"/></svg>

<svg xmlns="http://www.w3.org/2000/svg" viewBox="0 0 576 512"><!--! Font Awesome Pro 6.4.0 by @fontawesome - https://fontawesome.com License - https://fontawesome.com/license (Commercial License) Copyright 2023 Fonticons, Inc. --><path d="M432 152a32 32 0 1 0 0-64 32 32 0 1 0 0 64zm-88-32c0-48.6 39.4-88 88-88s88 39.4 88 88c0 22.6-6.2 44.8-18 64.1L458.3 256H383.4l5.2-8.6 25.1-41.3C373.9 197.7 344 162.3 344 120zM160 32.6l23.6 25.7 88 96L293.2 178 246 221.2l-21.6-23.6L192 162.3V448v32H128V448 162.3L95.6 197.6 74 221.2 26.8 178l21.6-23.6 88-96L160 32.6zM352 288h32 48 32v32 96h16 32v64H480 432 384 352V416h32 16V352H384 352V288z"/></svg>
